X:1
T:Standin In The Need of Prayer
T:Roll Jordan roll
T:Copyright 1881 by The Riverside Press
T:Rodeheaver's Plantation Melodies
T:Rodeheaver's Plantation Melodies
Z:Rodeheaver's Plantation Melodies
%%score [ 1 2 3 4 ]
L:1/8
Q:1/4=70
M:2/4
K:Eb
V:1 treble nm="Soprano" snm="S."
V:2 treble nm="Alto" snm="A."
V:3 bass nm="Tenor" snm="T."
V:4 bass nm="Bass" snm="B."
V:1
 E2 GB | e4 | _d2 eB | B7/2 =d/ | e>B c>A | _d/d/B/B/ G/EE/ | G2 AF | E2 z2 :| E | G/BB/ B/A/G/G/ | %10
w: Roll Jor- dan|roll,|roll. * *||||||||
 A B3 | G2 A<G | F3 E | G<B B/A/G/G/ | A B2 E | G2 AF | E4!D.C.! |] %17
w: |||||||
V:2
 E2 GB | e4 | _d2 eB | B7/2 =d/ | e>B c>A | _d/d/B/B/ G/EE/ | E2 FD | E2 z2 :| E | G/BB/ B/A/G/G/ | %10
w: ||* Jor- dan|roll. I|want to go to|Heav- en when I die- . to|hear Jor- dan|roll.|Oh|bro- thers, you ought- * t' have|
 A B3 | F2 E2 | D3 E | G<B B/A/G/G/ | A B2 E | E2 FD | E4 |] %17
w: been there.|Yes my|Lord! A|sit- ting in- * * the|King- dom. To|hear Jor- dan|roll.|
V:3
 z4 | (E,>F, G,/A,/B,/C/ | _D2) EB, | B,7/2 =D/ | E>B, C>A, | _D/D/B,/B,/ G,/E,G,/ | B,2 B,A, | %7
w: |Roll- * * * * *|. * *|||||
 G,2 z2 :| E, | G,/B,B,/ B,/A,/G,/G,/ | A, B,3 | B,2 B,2 | B,3 E, | G,<B, B,/A,/G,/G,/ | %14
w: |||||||
 A, B,2 G, | B,2 B,A, | G,4 |] %17
w: |||
V:4
 z4 | (E,>F, G,/A,/B,/C/ | _D2) EB, | B,7/2 =D/ | E>B, C>A, | _D/D/B,/B,/ G,/E,E,/ | E,2 B,,B,, | %7
 E,2 z2 :| E, | G,/B,B,/ B,/A,/G,/G,/ | A, B,3 | E,2 E,2 | B,,3 E, | %13
"_2. Oh, preachers you ought' have been there\n3. Oh, sinners you ought' have been there\n4. Oh, mourners you ought' have been there\n5. Oh, seekers you ought' have been there\n6. Oh, mothers you ought' have been there\n7. Oh, sisters you ought' have been there\n" G,<B, B,/A,/G,/G,/ | %14
 A, B,2 E, | E,2 B,,B,, | E,4 |] %17

